X:1
T:O Come All Ye Faithful
C:John Francis Wade
M:4/4
L:1/4
Q:1/4=100
K:F
F | F G A c | A2 A2 | B c d c | A4 | c | c d e f | g2 g2 | e f g a | g4 | a | g f e d | c2 c2 | d e f e | c4 |]
w: O come all ye faith-ful | Joy-ful and tri-um-phant | O come ye o come ye to Beth-le-hem | Come and be-hold him | Born the King of an-gels | O come let us a-dore him | O come let us a-dore him | O come let us a-dore him | Christ the Lord |
